web/src/lib/icons/pen.svg

<svg xmlns="http://www.w3.org/2000/svg" viewBox="0 0 272 272"><path fill="#a268ec" d="M153.34 172.5q-.04.39-.38-.03a.9.88 24.7 0 1-.18-.47q-.26-3.12-1.92-6.57-2.84-5.92-5.84-10.32a8 8 0 0 0-1.17-1.35q-5.9-5.48-10.66-10.06c-5.28-5.09-10.85-8.35-17.42-11.47q-5.45-2.6-11.85-2.94c10.63-13.69 21.73-28.48 31.7-40.76q11.99-14.75 15.46-19.2c3.99-5.1 8.4-9.78 13.68-16.32q4.02-4.99 14.61-17.09 5.91-6.75 10.02-8.98c11.03-5.99 23.57-4.82 33.76 2.32 11.38 7.97 16.75 23.38 12.06 36.91-2.28 6.58-4.21 10.76-8.79 16.63q-35.06 44.95-69.78 87.08-1.65 2.01-3.3 2.62m-11.91 9.93q-3.66 3.79-11.22 12.28-17.3 19.43-38.99 36.3c-3.69 2.87-5.74 4.86-10.06 4.2a.57.57 0 0 1-.46-.73c.64-2.19-.39-4.25-1.78-5.86-4.13-4.78-12.61-12.65-19.29-11.96a1.12 1.11-5.6 0 1-1.23-1.01q-.25-2.58.93-5.58 2.38-6.1 8.6-17.91 9.83-18.67 25.61-40.66 2.37-3.31 4.51-6.82c2.48-2.82 9.71-.61 12.16.69q9.49 5.06 16.76 11.49c4.19 3.7 7.15 8.07 10.61 12.78 2.67 3.65 4.8 8.16 3.85 12.79m-69.25 59.15q-6.6 8.16-16.47 9.37-6.11.74-7.15-4.02-.45-2.06.57-6.28c1.42-5.87 2.1-10.14 6.33-14.27q13.46 2.5 16.72 15.2"/><path fill="#fdf0d6" d="M103.92 129.29q6.4.34 11.85 2.94c6.57 3.12 12.14 6.38 17.42 11.47q4.76 4.58 10.66 10.06a8 8 0 0 1 1.17 1.35q3 4.4 5.84 10.32 1.66 3.45 1.92 6.57a.9.88 24.7 0 0 .18.47q.34.42.38.03-4.74 9.63-11.91 9.93c.95-4.63-1.18-9.14-3.85-12.79-3.46-4.71-6.42-9.08-10.61-12.78q-7.27-6.43-16.76-11.49c-2.45-1.3-9.68-3.51-12.16-.69q-1.55-4.08.31-7.34 1.05-1.85 5.56-8.05M72.18 241.58q-3.26-12.7-16.72-15.2-.26-3.65 2.11-6.82c2.36-3.16 10.29 2.55 14.14 5.14q5.92 4 7.02 10.51a2.68 2.68 0 0 1-1.12 2.66zm95.7-117.21q-4.75 5.68-5.59 6.39c-4.69 4.01-13.3 4.23-18.06.03-5.49-4.85-5.16-13.37-.76-18.88 12.11-15.16 23.09-30.01 36.18-45.96 4.55-5.54 8.04-10.29 11.96-15.55 5.19-6.97 12.61-9.55 20.46-4.26 7.57 5.1 5.89 15.93.88 22.33q-24.01 30.71-45.07 55.9"/></svg>

<svg xmlns="http://www.w3.org/2000/svg" viewBox="0 0 272 272"><g fill="#a268ec"><path d=" M 153.34 172.50 Q 153.30 172.89 152.96 172.47 A 0.90 0.88 24.7 0 1 152.78 172.00 Q 152.52 168.88 150.86 165.43 Q 148.02 159.51 145.02 155.11 A 8.09 8.09 0.0 0 0 143.85 153.76 Q 137.95 148.28 133.19 143.70 C 127.91 138.61 122.34 135.35 115.77 132.23 Q 110.32 129.63 103.92 129.29 C 114.55 115.60 125.65 100.81 135.62 88.53 Q 147.61 73.78 151.08 69.33 C 155.07 64.23 159.48 59.55 164.76 53.01 Q 168.78 48.02 179.37 35.92 Q 185.28 29.17 189.39 26.94 C 200.42 20.95 212.96 22.12 223.15 29.26 C 234.53 37.23 239.90 52.64 235.21 66.17 C 232.93 72.75 231.00 76.93 226.42 82.80 Q 191.36 127.75 156.64 169.88 Q 154.99 171.89 153.34 172.50 Z" /><path d=" M 141.43 182.43 Q 137.77 186.22 130.21 194.71 Q 112.91 214.14 91.22 231.01 C 87.53 233.88 85.48 235.87 81.16 235.21 A 0.57 0.57 0.0 0 1 80.70 234.48 C 81.34 232.29 80.31 230.23 78.92 228.62 C 74.79 223.84 66.31 215.97 59.63 216.66 A 1.12 1.11 -5.6 0 1 58.40 215.65 Q 58.15 213.07 59.33 210.07 Q 61.71 203.97 67.93 192.16 Q 77.76 173.49 93.54 151.50 Q 95.91 148.19 98.05 144.68 C 100.53 141.86 107.76 144.07 110.21 145.37 Q 119.70 150.43 126.97 156.86 C 131.16 160.56 134.12 164.93 137.58 169.64 C 140.25 173.29 142.38 177.80 141.43 182.43 Z" /><path d=" M 72.18 241.58 Q 65.58 249.74 55.71 250.95 Q 49.60 251.69 48.56 246.93 Q 48.11 244.87 49.13 240.65 C 50.55 234.78 51.23 230.51 55.46 226.38 Q 68.92 228.88 72.18 241.58 Z" /></g><g fill="#fdf0d6"><path d=" M 103.92 129.29 Q 110.32 129.63 115.77 132.23 C 122.34 135.35 127.91 138.61 133.19 143.70 Q 137.95 148.28 143.85 153.76 A 8.09 8.09 0.0 0 1 145.02 155.11 Q 148.02 159.51 150.86 165.43 Q 152.52 168.88 152.78 172.00 A 0.90 0.88 24.7 0 0 152.96 172.47 Q 153.30 172.89 153.34 172.50 Q 148.60 182.13 141.43 182.43 C 142.38 177.80 140.25 173.29 137.58 169.64 C 134.12 164.93 131.16 160.56 126.97 156.86 Q 119.70 150.43 110.21 145.37 C 107.76 144.07 100.53 141.86 98.05 144.68 Q 96.50 140.60 98.36 137.34 Q 99.41 135.49 103.92 129.29 Z" /><path d=" M 72.18 241.58 Q 68.92 228.88 55.46 226.38 Q 55.20 222.73 57.57 219.56 C 59.93 216.40 67.86 222.11 71.71 224.70 Q 77.63 228.70 78.73 235.21 A 2.68 2.68 0.0 0 1 77.61 237.87 L 72.18 241.58 Z" /></g><path fill="#fdf0d6" d=" M 167.88 124.37 Q 163.13 130.05 162.29 130.76 C 157.60 134.77 148.99 134.99 144.23 130.79 C 138.74 125.94 139.07 117.42 143.47 111.91 C 155.58 96.75 166.56 81.90 179.65 65.95 C 184.20 60.41 187.69 55.66 191.61 50.40 C 196.80 43.43 204.22 40.85 212.07 46.14 C 219.64 51.24 217.96 62.07 212.95 68.47 Q 188.94 99.18 167.88 124.37 Z" /></svg>
